X:1
T:Czerny - The Art Oof Finger Dexterity
T:Czerny - The Art Of Finger Dexterity
T:6. Clearness in broken chords
T:C.Czerny, Op. 740, Book 1
T:--
C:C.Czerny, Op. 740, Book 1
Z:--
%%score { 1 | ( 2 3 ) }
L:1/8
Q:1/4=60
M:2/4
K:Ab
V:1 treble nm="Piano"
V:2 bass 
V:3 bass 
V:1
"Ab" z E/4e/4c/4A/4"Ab/C" z A/4a/4e/4c/4 |"Eb" z B/4b/4g/4e/4"Eb/G" z e/4e'/4b/4g/4 | %2
"Ab" z e/4e'/4c'/4a/4"Ab/C" z c'/4c''/4a'/4e'/4 | %3
"Ab/Eb" z c'/4c''/4a'/4e'/4"Eb" z b/4b'/4g'/4e'/4 | z b/4b'/4f'/4=d'/4 z a/4a'/4f'/4d'/4 | %5
 z a/4a'/4f'/4=d'/4 z g/4g'/4e'/4c'/4 | z a/4a'/4e'/4_c'/4 z b/4b'/4f'/4=d'/4 | %7
"Eb" z"Eb7" e/4e'/4b/4g/4 _d/4_d'/4b/4g/4 B/4b/4g/4e/4 ||"Ab" z E/4e/4c/4A/4"Ab/C" z A/4a/4e/4c/4 | %9
"Eb" z B/4b/4g/4e/4"Eb/G" z e/4e'/4b/4g/4 |"Ab" z e/4e'/4c'/4a/4"Ab/C" z!8va(! c'/4c''/4a'/4e'/4 | %11
"Ab/Eb" z c'/4c''/4a'/4e'/4"Eb" z b/4b'/4g'/4e'/4 | %12
"C??" z d'/4d''/4a'/4f'/4"G7" z =b/4=b'/4g'/4f'/4 | %13
"C7" z c'/4c''/4g'/4=e'/4"F7" z =a/4=a'/4f'/4_e'/4 | %14
"Bb7" z b/4b'/4_a'/4f'/4"Eb7" z e'/4e''/4_d''/4b'/4 | %15
"Eb" z a/4a'/4e'/4c'/4 e/4e'/4c'/4a/4 c/4c'/4a/4e/4!8va)! | %16
 z (B/4b/4g/4e/4 G/4g/4e/4B/4 E/4e/4B/4G/4) | z (A/4a/4f/4=d/4 F/4f/4d/4B/4 =D/4d/4B/4A/4) | %18
 z (f/4f'/4=d'/4a/4 =d/4d'/4a/4f/4 A/4a/4f/4d/4) | z B/4g/4e/4B/4 e/4b/4g/4e/4 g/4e'/4b/4g/4 | %20
 z g/4g'/4f'/4=d'/4 a/4a'/4f'/4d'/4 g/4g'/4f'/4d'/4 | %21
 f/4f'/4c'/4a/4 e/4e'/4c'/4a/4 =d/4=d'/4=a/4^f/4 c/4c'/4_g/4_e/4 | %22
 c/4c'/4=g/4e/4 B/4b/4g/4e/4 c/4c'/4_a/4f/4 B/4b/4a/4f/4 | %23
 (B/4b/4g/4e/4 .B/) z/ e/4e'/4b/4g/4 .[ee']/ z/ | %24
 (e/4e'/4b/4a/4 .[=d=d']/) z/ (c/4c'/4a/4f/4 .[Bb]/) z/ | %25
 (B/4b/4g/4e/4 .B/) z/ (e/4e'/4b/4g/4 .[ee']/) z/ | %26
 ((e/4e'/4b/4a/4 .[=d=d']/)) z/ (c/4c'/4a/4f/4 .[Bb]/) z/ | %27
 ((B/4b/4g/4e/4 .B/)) z/ (e/4e'/4b/4g/4 .[ee']/) z/ | %28
 (e/4e'/4b/4a/4 .[=d=d']/) z/ z/4 c/4c'/4a/4f/4 .[dd']/ z/4 | %29
 (B/4b/4g/4f/4 .[Bb]/) z/ (g/4g'/4=d'/4=b/4 .[ff']/) z/ | %30
 (f/4f'/4c'/4a/4 .[ee']/) z/ (=d/4=d'/4=a/4^f/4 .[cc']/) z/ | %31
 (c/4c'/4=g/4e/4 .[Bb]/) z/ (c/4c'/4g/4=e/4 .[Bb]/) z/ | %32
 (c/4c'/4_a/4f/4 .[Bb]/) z/ (A/4a/4f/4=d/4 .[Ff]/) z/ | %33
 [Ge]/ z/ (B/4e/4g/4b/4) B/ z/ (e/4g/4b/4e'/4) | e/ z/ (=d/4a/4b/4=d'/4) c/ z/ (B/4f/4a/4b/4) | %35
 B/ z/ (g/4b/4e'/4g'/4) f/ z/ (e/4g/4b/4e'/4) | e/ z/ (=d/4a/4b/4=d'/4) c/ z/ (B/4f/4a/4b/4) | %37
 B/ z/ (e/4g/4b/4e'/4) e/ z/ (E/4_G/4c/4e/4) | E/ z/ (e/4=g/4_d'/4e'/4) e/ z/ (E/4_G/4c/4e/4) | %39
 E/ z/ (e/4=g/4_d'/4e'/4) e/ z/ z/4 G,/4A,/4D/4 | %40
 E/4G/4B/4d/4e/4g/4b/4d'/4!8va(! e'/4g'/4b'/4d''/4f''/4e''/4d''/4c''/4 | %41
 b'/4a'/4g'/4f'/4e'/4d'/4c'/4b/4!8va)! a/4g/4f/4e/4d/4c/4B/4A/4 | %42
 G/4F/4E/4=D/4F/4E/4_D/4C/4 B,/4A,/4G,/4F,/4 E,/4 z/4 z/4 z/4 || %43
"Ab" z E/4e/4c/4A/4"Ab/C" z A/4a/4e/4c/4 |"Eb" z B/4b/4g/4e/4"Eb/G" z e/4e'/4b/4g/4 | %45
"Ab" z e/4e'/4c'/4a/4"Ab/C" z c'/4c''/4a'/4e'/4 | %46
"Ab/Eb" z c'/4c''/4a'/4e'/4"Eb" z b/4b'/4g'/4e'/4 | z b/4b'/4f'/4=d'/4 z a/4a'/4f'/4d'/4 | %48
 z a/4a'/4f'/4=d'/4 z g/4g'/4e'/4c'/4 | z a/4a'/4e'/4_c'/4 z b/4b'/4f'/4=d'/4 | %50
"Eb" z"Eb7" e/4e'/4b/4g/4 _d/4_d'/4b/4g/4 B/4b/4g/4e/4 |"Ab" z E/4e/4c/4A/4"Ab/C" z A/4a/4e/4c/4 | %52
"Eb" z B/4b/4g/4e/4"Eb/G" z e/4e'/4b/4g/4 |"Ab" z e/4e'/4c'/4a/4"Ab/C" z!8va(! c'/4c''/4a'/4e'/4 | %54
"Ab/Eb" z c'/4c''/4a'/4e'/4"Eb" z b/4b'/4g'/4e'/4 | %55
"C??" z d'/4d''/4a'/4f'/4"G7" z =b/4=b'/4g'/4f'/4 | %56
"C7" z c'/4c''/4g'/4=e'/4"F7" z =a/4=a'/4f'/4_e'/4 | %57
"Bb7" z b/4b'/4_a'/4f'/4"Eb7" z e'/4e''/4_d''/4b'/4 | %58
"Ab" z a/4a'/4e'/4c'/4 e/4e'/4c'/4a/4 c/4c'/4a/4e/4!8va)! | %59
"Eb7" z e/4e'/4d'/4b/4 d/4d'/4b/4e/4 B/4b/4g/4e/4 | %60
"Ab" z e/4e'/4c'/4a/4 c/4c'/4a/4e/4 A/4a/4e/4c/4 |"Eb7" z G/4g/4e/4d/4 F/4f/4e/4d/4 G/4g/4e/4d/4 | %62
"Ab" z A/4a/4e/4c/4 E/4e/4c/4A/4 C/4c/4A/4E/4 |"Eb7" z e/4e'/4d'/4b/4 d/4d'/4b/4e/4 B/4b/4g/4e/4 | %64
"Ab" z E/4e/4c/4A/4 C/4c/4A/4E/4 A,/4A/4E/4C/4 |"Eb7" z G,/4G/4E/4D/4 F,/4F/4E/4D/4 G,/4G/4E/4D/4 | %66
"Ab" z[I:staff +1] A,/4[I:staff -1]A/4E/4C/4"Ab/C" z[I:staff +1] E,/4[I:staff -1]E/4C/4[I:staff +1]A,/4 | %67
"C??"[I:staff -1] z[I:staff +1] F,/4[I:staff -1]F/4=D/4[I:staff +1]A,/4"Eb7"[I:staff -1] z[I:staff +1] G,/4[I:staff -1]G/4E/4_D/4 | %68
"Ab" z[I:staff +1] A,/4[I:staff -1]A/4E/4C/4"Ab" z[I:staff +1] E,/4[I:staff -1]E/4C/4[I:staff +1]A,/4 | %69
"C??"[I:staff -1] z[I:staff +1] F,/4[I:staff -1]F/4=D/4[I:staff +1]A,/4"Eb7"[I:staff -1] z[I:staff +1] G,/4[I:staff -1]G/4E/4_D/4 | %70
 z A,/4A/4E/4C/4 A,/4A/4E/4C/4 A,/4A/4E/4C/4 | %71
 A,/4A/4E/4C/4 A,/4A/4E/4C/4 A,/4A/4E/4C/4 A,/4A/4E/4C/4 | A, z !arpeggio![ac'e'a'] z | z4 |] %74
V:2
 A,,/4E,/4A,/4C/4 z C,/4E,/4A,/4C/4 z | %1
 E,/4B,/4[I:staff -1]E/4G/4[I:staff +1] z G,/4B,/4[I:staff -1]E/4B/4[I:staff +1] z | %2
 A,/4[I:staff -1]E/4A/4c/4[I:staff +1] z[I:staff -1] C/4E/4A/4e/4[I:staff +1] z | %3
[I:staff -1] E/4A/4c/4e/4[I:staff +1] z[I:staff -1] E/4G/4B/4e/4[I:staff +1] z | %4
[I:staff -1] =D/4F/4B/4f/4[I:staff +1] z[I:staff -1] B,/4F/4B/4=d/4[I:staff +1] z | %5
[I:staff -1] =B,/4F/4A/4=d/4[I:staff +1] z[I:staff -1] C/4E/4G/4e/4[I:staff +1] z | %6
[I:staff -1] A,/4E/4F/4_c/4[I:staff +1] z[I:staff -1] _B,/4F/4A/4=d/4[I:staff +1] z | %7
 E,/4B,/4[I:staff -1]E/4G/4[I:staff +1] z z2 || A,,/4E,/4A,/4C/4 z C,/4E,/4A,/4C/4 z | %9
 E,/4B,/4[I:staff -1]E/4G/4[I:staff +1] z G,/4B,/4[I:staff -1]E/4B/4[I:staff +1] z | %10
[K:treble] A,/4E/4A/4c/4 z C/4E/4A/4e/4 z | E/4A/4c/4a/4 z E/4G/4B/4g/4 z | %12
 F/4A/4d/4a/4 z G/4=d/4f/4g/4 z | C/4G/4_B/4=e/4 z F/4c/4_e/4f/4 z | %14
 B,/4F/4_A/4=d/4 z E/4B/4_d/4g/4 z | A,/4E/4A/4c/4 z2 z | %16
[K:bass] E,,/4B,,/4E,/4G,/4 z .[B,E] .[G,B,] | F,,/4B,,/4=D,/4A,/4 z .[A,=D] .[F,A,] | %18
 B,,/4F,/4B,/4=D/4 z[K:treble] .[FA] .[B,F] | %19
[K:bass] E,/4B,/4[I:staff -1]E/4G/4[I:staff +1] z .[G,E][I:staff -1] [EG] | %20
[I:staff +1] G,,/4=D,/4F,/4=B,/4 z[K:treble] .[F=B] .[=DF] | %21
[K:bass] A,,[K:treble] [EAc][K:bass] =A,,[K:treble] [_E_G]/ z/ | %22
[K:bass] B,,[K:treble] [B,E=G][K:bass] B,, [F,A,=D] | %23
 E, z/4 G/4E/4B,/4 .G,/ z/ z/4[K:treble] B/4G/4E/4 | %24
 .F,/ z/ z/4 A/4=D/4B,/4[K:bass] =D, z/4 A/4D/4B,/4 | %25
 E,/ z/ z/4 G/4E/4B,/4 E,/ z/ z/4[K:treble] B/4G/4E/4 | %26
 F,/4 z/ z/4 A/4=D/4B,/4[K:bass] =D,/ z/ z/4 z/4 A/4D/4B,/4 | %27
 E,/ z/ z/4 G/4E/4B,/4 G,/ z/ z/4[K:treble] B/4G/4E/4 | %28
[K:bass] .F,/ z/ z/4 A/4=D/4B,/4 =D,/ z/ z/4 A/4F/4B,/4 | %29
 E,/ z/ z/4 E/4B,/4G,/4 G,,/ z/ z/4 =B,/4F,/4=D,/4 | %30
 A,,/ z/ z/4 C/4A,/4E,/4 =A,,/ z/ z/4 C/4_G,/4E,/4 | %31
 B,,/ z/ z/4 E/4B,/4=G,/4 B,,/ z/ z/4 =E/4B,/4G,/4 | %32
 B,,/ z/ z/4 F/4B,/4A,/4 B,,/ z/ z/4 =D/4B,/4A,/4 | E,/4B,/4E/4G/4 z G,/4B,/4E/4B/4 z | %34
 F,/4A,/4B,/4A/4 z =D,/4A,/4B,/4F/4 z | E,/4B,/4E/4G/4 z G,/4B,/4E/4B/4 z | %36
 F,/4A,/4B,/4[I:staff -1]A/4[I:staff +1] z =D,/4A,/4B,/4[I:staff -1]F/4[I:staff +1] z | %37
 E,/4B,/4E/4G/4 z =A,,/4E,/4_G,/4C/4 z | B,,/4C,/4=E,/4_D/4 z =A,,/4_E,/4_G,/4C/4 z | %39
 B,,/4E,/4=G,/4D/4 z (E,,/4G,,/4B,,/4D,/4 [G,,B,,D,E,]- | [G,,B,,D,E,]4-) | [G,,B,,D,E,]4- | %42
 [G,,B,,D,E,] z z z/4 D,/4C,/4B,,/4 || A,,/4E,/4A,/4C/4 z C,/4E,/4A,/4C/4 z | %44
 E,/4B,/4[I:staff -1]E/4G/4[I:staff +1] z G,/4B,/4[I:staff -1]E/4B/4[I:staff +1] z | %45
 A,/4[I:staff -1]E/4A/4c/4[I:staff +1] z[I:staff -1] C/4E/4A/4e/4[I:staff +1] z | %46
[I:staff -1] E/4A/4c/4e/4[I:staff +1] z[I:staff -1] E/4G/4B/4e/4[I:staff +1] z | %47
[I:staff -1] =D/4F/4B/4f/4[I:staff +1] z[I:staff -1] B,/4F/4B/4=d/4[I:staff +1] z | %48
[I:staff -1] =B,/4F/4A/4=d/4[I:staff +1] z[I:staff -1] C/4E/4G/4e/4[I:staff +1] z | %49
[I:staff -1] A,/4E/4F/4_c/4[I:staff +1] z[I:staff -1] _B,/4F/4A/4=d/4[I:staff +1] z | %50
 E,/4B,/4[I:staff -1]E/4G/4[I:staff +1] z z2 | A,,/4E,/4A,/4C/4 z C,/4E,/4A,/4C/4 z | %52
 E,/4B,/4[I:staff -1]E/4G/4[I:staff +1] z G,/4B,/4[I:staff -1]E/4B/4[I:staff +1] z | %53
[K:treble] A,/4E/4A/4c/4 z C/4E/4A/4e/4 z | E/4A/4c/4a/4 z E/4G/4B/4g/4 z | %55
 F/4A/4d/4a/4 z G/4=d/4f/4g/4 z | C/4G/4_B/4=e/4 z F/4c/4_e/4f/4 z | %57
 B,/4F/4_A/4=d/4 z E/4B/4_d/4g/4 z | A,/4E/4A/4c/4 z2 z | G,/4B,/4E/4B/4 z2 z | %60
 A,/4E/4A/4c/4 z2 z |[K:bass] E,/4B,/4D/4E/4 z2 z | A,,/4E,/4A,/4C/4 z2 z | %63
 G,,/4B,,/4E,/4B,/4 z2 z | A,,/4E,/4A,/4C/4 z2 z |[K:bass] E,,/4B,,/4D,/4E,/4 z2 z | %66
 A,,,/4E,,/4A,,/4C,/4 z C,,/4E,,/4A,,/4C,/4 z | =B,,,/4F,,/4A,,/4=D,/4 z _B,,,/4E,,/4G,,/4_D,/4 z | %68
 A,,,/4E,,/4A,,/4C,/4 z C,,/4E,,/4A,,/4C,/4 z | =B,,,/4F,,/4A,,/4=D,/4 z _B,,,/4E,,/4G,,/4_D,/4 z | %70
 A,,,/4E,,/4A,,/4C,/4 z z E, | C,A,, E,,C,, | A,,, z[K:treble] !arpeggio![A,EAc] z | z4 |] %74
V:3
 x4 | x4 | x4 | x4 | x4 | x4 | x4 | x4 || x4 | x4 |[K:treble] x4 | x4 | x4 | x4 | x4 | x4 | %16
[K:bass] x4 | x4 | x2[K:treble] x2 |[K:bass] x4 | x2[K:treble] x2 | %21
[K:bass] x[K:treble] x[K:bass] x[K:treble] x |[K:bass] x[K:treble] x[K:bass] x2 | %23
 x13/4[K:treble] x3/4 | x2[K:bass] x2 | x13/4[K:treble] x3/4 | x7/4[K:bass] x9/4 | %27
 x13/4[K:treble] x3/4 |[K:bass] x4 | x4 | x4 | x4 | x4 | x4 | x4 | x4 | x4 | x4 | x4 | x4 | E,,4- | %41
 E,,4- | E,, x3 || x4 | x4 | x4 | x4 | x4 | x4 | x4 | x4 | x4 | x4 |[K:treble] x4 | x4 | x4 | x4 | %57
 x4 | x4 | x4 | x4 |[K:bass] x4 | x4 | x4 | x4 |[K:bass] x4 | x4 | x4 | x4 | x4 | x4 | x4 | %72
 x2[K:treble] x2 | x4 |] %74

